public/assets/icons/gallery.svg

<?xml version='1.0' encoding='utf-8'?>
<svg version="1.1" xmlns="http://www.w3.org/2000/svg" viewBox="0 0 129 129" xmlns:xlink="http://www.w3.org/1999/xlink" enable-background="new 0 0 129 129">
  <g>
    <g>
      <circle cx="76" cy="42.4" r="6.6"/>
      <path d="m6.4,119.5c0,0 0,0.1 0,0 0,0.1 0,0.1 0.1,0.1 0.1,0.2 0.2,0.5 0.3,0.7 0,0.1 0.1,0.1 0.1,0.2 0,0.1 0.1,0.1 0.1,0.2 0,0 0.1,0.1 0.1,0.1 0.1,0.2 0.3,0.3 0.4,0.5 0,0 0.1,0.1 0.1,0.1 0.1,0.1 0.1,0.1 0.2,0.2 0.1,0 0.1,0.1 0.1,0.1 0.1,0.1 0.2,0.1 0.3,0.2 0,0 0.1,0.1 0.1,0.1 0,0 0.1,0 0.1,0.1 0.1,0.1 0.3,0.1 0.4,0.2 0.1,0 0.1,0 0.2,0.1 0.1,0 0.2,0.1 0.2,0.1 0.3,0.1 0.6,0.1 0.9,0.1h108.2c2.3,0 4.1-1.8 4.1-4.1v-27-80.9c0-2.3-1.8-4.1-4.1-4.1h-107.9c-2.3,0-4.1,1.8-4.1,4.1v80.7 27c0,0.3 0.1,0.7 0.1,1 0,0.1 0,0.2 0,0.2zm108.1-5.2h-90.4l66.8-43.7 23.6,22.5v21.2zm-100-99.6h100v67.1l-20.3-19.4c-1.4-1.3-3.5-1.5-5.1-0.5l-19.1,12.6-13.3-13.4c-1.4-1.4-3.5-1.6-5.1-0.6l-37.1,23.4v-69.2zm0,78.9l38.7-24.4 9.8,9.9-48.5,31.7v-17.2z"/>
    </g>
  </g>
</svg>

<?xml version="1.0" encoding="utf-8"?>
<!-- Generator: Adobe Illustrator 23.0.4, SVG Export Plug-In . SVG Version: 6.00 Build 0)  -->
<svg version="1.1" id="Layer_1" xmlns="http://www.w3.org/2000/svg" xmlns:xlink="http://www.w3.org/1999/xlink" x="0px" y="0px"
	 viewBox="0 0 129 129" style="enable-background:new 0 0 129 129;" xml:space="preserve">
<style type="text/css">
	.st0{fill:#FFFFFF;}
</style>
<g>
	<g>
		<circle class="st0" cx="76" cy="42.4" r="6.6"/>
		<path class="st0" d="M6.4,119.5C6.4,119.5,6.4,119.6,6.4,119.5C6.4,119.6,6.4,119.6,6.4,119.5c0.2,0.3,0.3,0.6,0.4,0.8
			c0,0.1,0.1,0.1,0.1,0.2s0.1,0.1,0.1,0.2l0.1,0.1c0.1,0.2,0.3,0.3,0.4,0.5l0.1,0.1c0.1,0.1,0.1,0.1,0.2,0.2c0.1,0,0.1,0.1,0.1,0.1
			c0.1,0.1,0.2,0.1,0.3,0.2l0.1,0.1c0,0,0.1,0,0.1,0.1c0.1,0.1,0.3,0.1,0.4,0.2c0.1,0,0.1,0,0.2,0.1c0.1,0,0.2,0.1,0.2,0.1
			c0.3,0.1,0.6,0.1,0.9,0.1h108.2c2.3,0,4.1-1.8,4.1-4.1v-27V10.6c0-2.3-1.8-4.1-4.1-4.1H10.4c-2.3,0-4.1,1.8-4.1,4.1v80.7v27
			c0,0.3,0.1,0.7,0.1,1C6.4,119.4,6.4,119.5,6.4,119.5L6.4,119.5z M114.5,114.3H24.1l66.8-43.7l23.6,22.5V114.3z M14.5,14.7h100
			v67.1L94.2,62.4c-1.4-1.3-3.5-1.5-5.1-0.5L70,74.5L56.7,61.1c-1.4-1.4-3.5-1.6-5.1-0.6L14.5,83.9C14.5,83.9,14.5,14.7,14.5,14.7z
			 M14.5,93.6l38.7-24.4l9.8,9.9l-48.5,31.7V93.6z"/>
	</g>
</g>
</svg>
